X: 1
T: Whytefriars Hornpipe
N: As played by John Kirkpatrck with a 7 bar A music.
S: burgess paul <pburgess@blueyonder.co.uk> tradtunes 2010-12-16
M: 4/4
L: 1/8
R: hornpipe
K: Gmaj
AB\
|: cB AG FG AF|GABG A2D2|F2D2 FG A2
A3 B cB AG| FG AF GABG| ABcdB2 G2| G3 B :|
|: cB cd e4|g4 ag fe |defd efge |a2 A2 A3 B|
cB cd e4| g4 ag fe|defd AB cd|1 B2 G2 G3 B:|2 B2G2G2|]
